X:61
T:Glenhead Reel*
B:NFID.242c ("untitled reel")
S:JMcK
Z:Robinson/Black
061glenh
L:1/8
M:C
R:reel
Q:360
K:D
D2ED ADBA|f2fe dBB2|AF (3FFF DFAF|BFAF EGFE|
D2ED ADBA|f2fe dBB2|AF (3FFF DFAF|1 EDEF D2 (3A,B,C:|\
[2 EDEF D3||
A|defe dfaf|g2bg affe|dBBA FAdd|f2gf efde|
fgaf g2bg|affe dBB2|AF (3FFF DFAF|1 EDEF D3:|\
[2 EDEF D2 (3A,B,C||"LAST TIME" EDEF HD4|]

%%%

